teeny/outline/nes.svg

<svg width="15" height="15" viewBox="0 0 15 15" fill="none" xmlns="http://www.w3.org/2000/svg">
<path d="M3.5 7V10M2 8.5H5M11 9.5H12M9 9.5H10M1.5 3.5H13.5C14.0523 3.5 14.5 3.94772 14.5 4.5V10.5C14.5 11.0523 14.0523 11.5 13.5 11.5H1.5C0.947716 11.5 0.5 11.0523 0.5 10.5V4.5C0.5 3.94772 0.947715 3.5 1.5 3.5Z" stroke="black"/>
</svg>

<svg viewBox="0 0 15 15" xmlns="http://www.w3.org/2000/svg"><path fill="none" stroke="#000" d="M3.5 7v3M2 8.5h3m6 1h1m-3 0h1m-8.5-6h12c.55 0 1 .44 1 1v6c0 .55-.45 1-1 1h-12c-.56 0-1-.45-1-1v-6c0-.56.44-1 1-1Z"/></svg>
